X: 1
P: The 72nd's Farewell to Aberdeen
C: A.K.A. A Boy's Lament for His Dragon
R: march
C: from John Chambers <jc@trillian.mit.edu>
C: mod. by T. Traub, 10-31-2002
M: C|
L: 1/8
K: D
   B2 \
| "D"A2d2 d2ef | "G"gfed "D"f4 | "G"g2B2 B2cd | "E7"efed "A7"dcBA | \
"D"A2d2 d2ef | 
"A7"gfed "Bm"f3f | "G"g2B2 "A7"cdec | "D"d6 :|\
|: fg \
| "D"a2A2 "D7"A2=c2 | "G"B2G2 "A7"A3B | 
"D"A2d2 "Bm"dcde | "E7"f2e2 "A7"e2fg | \
"D"a2A2 "D7"A2=c2 | "G"B2G2 "D"A3B | "G"A2d2 "A7"fedc | "D"d6 :|
